X:1
T:Title
%%score { ( 1 3 6 ) | ( 2 4 5 ) }
L:1/8
Q:1/4=100
M:4/4
K:G
V:1 treble nm="Grand Piano"
V:3 treble 
V:6 treble 
V:2 bass 
V:4 bass 
V:5 bass 
V:1
 GDGA BABc | d2 e2 d4 | [Gd][Fc][Fc][GB] [Ac]2 [FA]2 | [DGB][DAc][Bd][ce] [Bd]4 | GDGA BABc | %5
w: D.~B.~Tonwer * * * * * * *|||||
 d2 e2 d4 | z4 z2 e2 | [Fd]2 [Gd]2 [Ad]4 | [Fe]3 [Fd] [Fe][Gd][Ac][GB] | [FA]2 [GB]2 [Ac]2 A2 | %10
w: |||||
 d3 ^c d[F=c][DFB][CFA] | [B,EG]2 [DFA]2 [DGB]4 | GDGA BABc | d2 e2 d4 | %14
w: ||||
 [Ge][Gd][DFc][B,GB] [Gd][Fc][GB][CEA] | [B,DG]2 [A,DF]2 [B,DG]4 | z2 BB z4 | z4 A4 | B4 z4 | %19
w: |||||
 z2 .F2 z4 | [A,CE]2 [A,CE]2 [CEA]2 [CEA]2 | z4 B4 | z4 c4 | z4 d4 | d2 d>d [G^c]2 [GA]2 | %25
w: ||||||
 [Ge]3 [Fd] [E^c]4 | e2 e>e d2 A2 | f3 e d4 | [Bg]2 [Bf]>e d2 B>B | [Fe]2 [Fd]>[Fc] [GB]2 A>G | %30
w: |||||
 FG[CFA][EAc] [DGB]2 [G^c]2 | [Fd]6 z2 | d4 z4 | z4 A4 | B4 z4 | z2 .F2 z4 | %36
w: ||||||
 [A,CE]2 [A,CE]2 [CEA]2 [CEA]2 | z4 B4 | z4 c4 | z4 d4 | d2 d>d [G^c]2 [GA]2 | [Ge]3 [Fd] [E^c]4 | %42
w: ||||||
 e2 e>e d2 A2 | f3 e d4 | g2 g>g f2 B2 | e2 e>e d2 cB | AB[Fc][Fd] [Fe]2 [Af]2 | [Gg]6 z2 |] %48
w: ||||||
V:2
 G,D,G,A, B,A,[K:treble][G,G][G,A,G] | [G,B,G]2 [G,CG]2 [G,B,G]4 | %2
 [D,B,][D,A,][D,A,][D,D] [D,D]2 [D,D]2 | G,G,G,G, G,4 | G,D,G,A, B,A,[K:treble][G,G][G,A,G] | %5
 [G,B,G]2 [G,CG]2 [G,B,G]4 | [A,G][A,^CG][A,EG][A,EA] [A,DA]2 .[A,CG]2 | [D,A,]2 [D,B,]2 [D,C]4 | %8
 [D,C]3 [D,C] [D,C][D,B,][D,D][D,D] | z4 D4[K:treble] | %10
 [G,B,G]3 [G,_B,G] [G,=B,G][K:bass][D,_B,]D,D, | E,2 D,2 G,,4 | %12
 G,D,G,A, B,A,[K:treble][G,G][G,A,G] | [G,B,G]2 [G,CG]2 [G,B,G]4 | %14
 [C,C][B,,G,]A,,G, [G,B,][D,A,][E,G,]C, | D,2 D,2 G,,4 | (3z[K:treble] [DG][DG] z2 z4 | %17
 (3z[K:treble] [DF][DF] z2 z4 | (3z [B,D][B,D] z2 z4 | (3z[K:treble] [CD][CD] z2 z4 | %20
 [C,,C,]4 [A,,A,]4 | [D,,D,]4 [B,,,B,,]4 | [E,,E,]4 [C,,C,]4 | [D,,D,]4 z[K:treble] G [FA]2 | %24
 [G,B,G]2 [G,B,G]>[G,B,G][K:bass] [E,A,]2 [^C,A,]2 | [A,,A,]4 [A,,A,]4 | %26
 [A,^CG]2 [A,CG]>[A,CG] [A,DF]2 [CE]2 | [DA]3 [A,^CG] [B,DF]4 | %28
 [G,D]2 [G,D]>[G,CG] [G,B,G]2 [G,DG]>[G,DG] | [D,C]2 [D,C]>[D,A,] [E,G,]2 [F,CD]>[G,B,D] | %30
 [D,A,D][D,B,D]D,D, G,2 [G,A,]2 | [D,A,]6 z2 | (3z[K:treble] [DG][DG] z2 z4 | %33
 (3z[K:treble] [DF][DF] z2 z4 | (3z [B,D][B,D] z2 z4 | (3z[K:treble] [CD][CD] z2 z4 | %36
 [C,,C,]4 [A,,A,]4 | [D,,D,]4 [B,,,B,,]4 | [E,,E,]4 [C,,C,]4 | [D,,D,]4 z[K:treble] G [FA]2 | %40
 [G,B,G]2 [G,B,G]>[G,B,G][K:bass] [E,A,]2 [^C,A,]2 | [A,,A,]4 [A,,A,]4 | %42
 [A,^CG]2 [A,CG]>[A,CG] [A,DF]2 [CE]2 | [DA]3 [A,^CG] [B,DF]4 | %44
 [B,DG]2 [B,DG]>[B,DG] [A,DA]2 [B,^DA]2 | [CEG]2 [CG]>[CG] [G,B,G]2[K:bass] D-[G,D] | %46
 [D,F,D][D,G,D][D,A,][D,B,] [D,C]2 [D,C]2 | [G,B,]6 z2 |] %48
V:3
 x8 | x8 | x8 | x8 | x8 | x8 | ^cABc f2 z A, | x8 | x8 | x8 | x8 | x8 | x8 | x8 | x8 | x8 | %16
 (3[DGBd-][Bd-][Bd-] d2 (3BBB BB | z2 AA z2 FF | z2 GG z4 | (3[CDFA-][FA-][FA-] AF (3FFF FF | x8 | %21
 [A,DF]2 [A,DF]2 [A,DF]2 [B,DF]2 | [B,EG]2 [B,EG]2 [CEG]2 [CEG]2 | [GB]3 [FA] [FA]B c2 | x8 | x8 | %26
 x8 | x8 | x8 | x8 | x8 | x8 | z2 BB z4 | z2 AA z2 FF | z2 GG z4 | %35
 (3[CDFA-][FA-][FA-] AF (3FFF FF | x8 | [A,DF]2 [A,DF]2 [A,DF]2 [B,DF]2 | %38
 [B,EG]2 [B,EG]2 [CEG]2 [CEG]2 | [GB]3 [FA] [FA]B c2 | x8 | x8 | x8 | x8 | x8 | x8 | x8 | x8 |] %48
V:4
 x6[K:treble] x2 | x8 | x8 | x8 | x6[K:treble] x2 | x8 | x8 | x8 | x8 | %9
 [D,D]2 [D,D]2 F,2[K:treble] [A,F]2 | x5[K:bass] x3 | x8 | x6[K:treble] x2 | x8 | x8 | x8 | %16
 z2[K:treble] [DG][DG] (3[DG][DG][DG] [DG][DG] | z2[K:treble] [DF][DF] (3[CDF][CD][CD] [CD][CD] | %18
 z2 [B,D][B,D] (3[B,D][B,D][B,D] [B,D][B,D] | z2[K:treble] [CD][CD] (3[CD][CD][CD] [CD][CD] | x8 | %21
 x8 | x8 | z4 [D,,D,]4[K:treble] | x4[K:bass] x4 | x8 | x8 | x8 | x8 | x8 | x8 | x8 | %32
 z2[K:treble] [DG][DG] (3[DG][DG][DG] [DG][DG] | z2[K:treble] [DF][DF] (3[CDF][CD][CD] [CD][CD] | %34
 z2 [B,D][B,D] (3[B,D][B,D][B,D] [B,D][B,D] | z2[K:treble] [CD][CD] (3[CD][CD][CD] [CD][CD] | x8 | %37
 x8 | x8 | z4 [D,,D,]4[K:treble] | x4[K:bass] x4 | x8 | x8 | x8 | x8 | z4 z2[K:bass] .[G,A,]2 | %46
 x8 | x8 |] %48
V:5
 x6[K:treble] x2 | x8 | x8 | x8 | x6[K:treble] x2 | x8 | x8 | x8 | x8 | x6[K:treble] x2 | %10
 x5[K:bass] x3 | x8 | x6[K:treble] x2 | x8 | x8 | x8 | [G,,G,]8[K:treble] | [D,,D,]8[K:treble] | %18
 [G,,G,]8 | [D,,D,]8[K:treble] | x8 | x8 | x8 | x5[K:treble] x3 | x4[K:bass] x4 | x8 | x8 | x8 | %28
 x8 | x8 | x8 | x8 | [G,,G,]8[K:treble] | [D,,D,]8[K:treble] | [G,,G,]8 | [D,,D,]8[K:treble] | x8 | %37
 x8 | x8 | x5[K:treble] x3 | x4[K:bass] x4 | x8 | x8 | x8 | x8 | x6[K:bass] x2 | x8 | x8 |] %48
V:6
 x8 | x8 | x8 | x8 | x8 | x8 | x8 | x8 | x8 | x8 | x8 | x8 | x8 | x8 | x8 | x8 | x8 | %17
 (3[DFAc-][Ac-][Ac-] c2 (3z FF z2 | (3[B,DG]GG z2 (3GGG GG | x8 | x8 | x8 | x8 | x8 | x8 | x8 | %26
 x8 | x8 | x8 | x8 | x8 | x8 | (3[DGB]BB z2 (3BBB BB | (3[DFAc-][Ac-][Ac-] c2 (3z FF z2 | %34
 (3[B,DG]GG z2 (3GGG GG | x8 | x8 | x8 | x8 | x8 | x8 | x8 | x8 | x8 | x8 | x8 | x8 | x8 |] %48

